app/client/src/assets/icons/blueprintjs/20px/issue-new.svg

<?xml version="1.0" encoding="UTF-8"?>
<svg width="20px" height="20px" viewBox="0 0 20 20" version="1.1" xmlns="http://www.w3.org/2000/svg" xmlns:xlink="http://www.w3.org/1999/xlink">
    <!-- Generator: Sketch 45.2 (43514) - http://www.bohemiancoding.com/sketch -->
    <title>pt-icon-issue-new</title>
    <desc>Created with Sketch.</desc>
    <defs></defs>
    <g id="Page-1" stroke="none" stroke-width="1" fill="none" fill-rule="evenodd">
        <g id="pt-icon-issue-new" fill="#10161A">
            <path d="M13.1665829,0.511742581 C13.1078785,0.680068808 13.0637502,0.855228641 13.03571,1.03570996 C12.2957573,1.1506717 11.6452538,1.53605949 11.1884076,2.08766525 C10.8006573,2.0299204 10.4038228,2 10,2 C5.581722,2 2,5.581722 2,10 C2,14.418278 5.581722,18 10,18 C14.418278,18 18,14.418278 18,10 C18,9.59617721 17.9700796,9.19934271 17.9123347,8.81159245 C18.4639405,8.35474619 18.8493283,7.7042427 18.96429,6.96429004 C19.1447714,6.9362498 19.3199312,6.89212145 19.4882574,6.83341711 C19.820215,7.82854534 20,8.89327715 20,10 C20,15.5228475 15.5228475,20 10,20 C4.4771525,20 0,15.5228475 0,10 C0,4.4771525 4.4771525,0 10,0 C11.1067228,0 12.1714547,0.179785035 13.1665829,0.511742581 Z M11,16 L9,16 L9,14 L11,14 L11,16 Z M11,13 L9,13 L9,4 L11,4 L11,13 Z M17,3 L18.5,3 C19.0522847,3 19.5,3.44771525 19.5,4 C19.5,4.55228475 19.0522847,5 18.5,5 L17,5 L17,6.5 C17,7.05228475 16.5522847,7.5 16,7.5 C15.4477153,7.5 15,7.05228475 15,6.5 L15,5 L13.5,5 C12.9477153,5 12.5,4.55228475 12.5,4 C12.5,3.44771525 12.9477153,3 13.5,3 L15,3 L15,1.5 C15,0.94771525 15.4477153,0.5 16,0.5 C16.5522847,0.5 17,0.94771525 17,1.5 L17,3 Z" id="pt-icon-issue-new-20"></path>
        </g>
    </g>
</svg>

<svg xmlns="http://www.w3.org/2000/svg" width="20" height="20"><path fill-rule="evenodd" d="M13.167.512a2.98 2.98 0 0 0-.131.524c-.74.115-1.39.5-1.848 1.052a8 8 0 1 0 6.724 6.724 2.997 2.997 0 0 0 1.052-1.848 2.98 2.98 0 0 0 .524-.13A9.99 9.99 0 0 1 20 10c0 5.523-4.477 10-10 10S0 15.523 0 10 4.477 0 10 0a9.99 9.99 0 0 1 3.167.512ZM11 16H9v-2h2v2Zm0-3H9V4h2v9Zm6-10h1.5a1 1 0 0 1 0 2H17v1.5a1 1 0 0 1-2 0V5h-1.5a1 1 0 0 1 0-2H15V1.5a1 1 0 0 1 2 0V3Z"/></svg>
